X: 2
T: Eddie Moloney's Favorite
R: reel
M: 4/4
L: 1/8
K: Edor
B2GB EBGB|A2FA DAFA|B2GB EBGA|(3Bcd ef gfed|B2GB EBGB|A2FA DAFA|BAGF EFGA|(3Bcd ed (3Bcd ef||g2gf gfed|BdA=c Bdef|g2gf gfed|BdA=c BEef|gbaf gfed|B2AB GAFG|EDEF GzGA|AGdB gfed||% Variation B-part bars 5-6 |g2gf gfed|B2AB GBFB|


Tune 323	Setting 21802

